X:819
T:Fear A Phige #1 
C:Joe Buchanan's Scottish Tome - Page 395.2
I:395 2
Z:Carl Allison
R:Strathspey
L:1/8
M:4/4
K:A
"A"A>A ce/ "A"A>A c>e | "A"A>A c>A "D"F2 "E"E2 | "A"A>A c>e "A"A>A c>e | "A"A>A c>A "E7"B2 B2 |
"A"A>A c>e "A"A>A c>e | "A"A>A c>A "D"F2 "E"E2 | "A"A>A c>e "F#m"f>ec>A |  "E7"B>B c>B "A"A2 A2 :|
"A"A>AA>A "A"A>AA>A | "A"A>AA>A "D"F2 "E"E2 | "A"A>AA>A "A"A>AA>A | "F#m"A>A c>A "E7"B2 B2 |
"A"A>AA>A "A"A>AA>A | "A"A>AA>A "D"F2 "E"E2 | "A"A>AA>A "F#m"f>ec>A | "E7"B>B c>B "A"A2 A2 :|

